X:1
T:Fuge
T:Fuge
T:BWV 953
T:Johann Sebastian Bach
C:Johann Sebastian Bach
%%score 1 2 3
L:1/8
M:4/4
K:C
V:1 treble 
V:2 treble 
V:3 bass 
V:1
 z2 z/ c/B/c/ A/c/B/c/ G/c/B/c/ | F/c/B/c/ E/c/B/c/ D/c/B/c/ B/c/A/B/ | c/e/d/c/ B z c z B z | %3
 e z d z cA dc | B z c z c z c z | c z c z fd gf | ec fe dB ed | cA dc B/c/B/A/ G/g/^f/g/ | %8
 e/g/^f/g/ d/g/f/g/ c/g/f/g/ B/g/f/g/ | A/g/^f/g/ f/g/e/f/ G/=f/e/d/ e/f/d/e/ | %10
 F/e/d/c/ d/e/c/d/ E/d/c/B/ c/d/B/c/ | D/c/B/A/ B/c/A/B/ ^G/A/G/^F/ E/e/d/e/ | %12
 c/d/c/B/ A^c d z =c z | f z e z d/c/B/A/ B/f/e/d/ | c/d/^c/B/ c/d/=B/c/ d/f/e/d/ e/_b/a/g/ | %15
 f/e/d/^c/ d/e/=c/d/ B/g/^f/e/ f/c'/b/a/ | g/^f/g/a/ b2 a2 g2- | g^f- fe a3 a | g4- g2- gg | %19
 ^f4- f/f/e/^d/ e/f/=d/e/ | ^c2 =c2- c/c/B/A/ B/c/A/B/ | G2- G/^F/G/A/ B/A/c/B/ A/G/A/F/ | %22
 G2 AB c4- | c z GA B4- | B/c/B/c/ ^f/c/g/c/ a4- | ad g/a/^f/g/ e/g/f/g/ d/g/f/g/ | %26
 c/g/^f/g/ B/g/f/g/ A/g/f/e/ f/g/e/f/ | B/a/g/^f/ g/a/f/g/ c/b/a/g/ a/b/g/a/ | bg z B/d/ gc Bd | %29
 gA Gb c'a dc' | bg c_b af =Ba | ge Ag fd Bf | e/d/c/B/ c6- | c4 d4- | d/G/F/G/ c2 z/ G/^F/G/ =f2 | %35
 z/ G/c- c/cB/ !fermata![Gc]4 |] %36
V:2
 x8 | x8 | z2 z/ G/^F/G/ E/G/F/G/ D/G/F/G/ | C/G/^F/G/ B,/G/F/G/ A,/G/F/E/ F/G/E/F/ | %4
 G/A/G/=F/ E z F z E z | A z G z A z d z | G z c z ^F z B z | E z A z D z z2 | z8 | z8 | z8 | z8 | %12
 z2 z/ A/G/A/ F/A/^G/A/ E/A/G/A/ | D/A/^G/A/ C/A/G/A/ B,/A/G/^F/ G/A/F/G/ | %14
 A/=F/E/D/ E/_B/A/G/ F/D/^C/=B,/ C/D/B,/C/ | D/G/F/E/ F/G/E/F/ ^D/E/D/^C/ D/E/C/D/ | %16
 E/^D/E/^F/ Gg- g^f- fe | c2 B2 cA ^f2- | f/=f/e/^d/ e/f/=d/e/ ^cA e2- | e/e/d/^c/ d/e/=c/d/ B4- | %20
 B/B/A/G/ A/B/G/A/ ^F4- | F/=F/E/^D/ E2- E3 D | z/ E/^D/E/ z/ EE/- EEAG | ^F/D/^C/D/ z/ DD/- DDGF | %24
 E z z2 z Adc | B/^F/G/F/ E/G/D/G/ C/B,/A,/B,/ D/B,/A,/B,/ | %26
 E/B,/A,/B,/ D/B,/A,/B,/ C/B,/A,/G,/ A,/B,/C/A,/ | D/C/B,/A,/ B,/C/D/B,/ E/D/C/B,/ C/D/E/^F/ | %28
 G/A/B/c/ B/A/G/^F/ E/G/F/G/ D/G/F/G/ | C/G/^F/G/ B,/G/F/G/ A,/G/F/E/ F/G/E/F/ | %30
 G,/=F/E/D/ E/F/D/E/ F,/E/D/C/ D/E/C/D/ | E,/D/C/B,/ C/D/B,/C/ D,/C/B,/A,/ B,/C/A,/B,/ | %32
 C2 z/ E/D/E/ F/E/D/E/ G/E/D/E/ | A/E/D/E/ G/E/D/E/ FDGF | E2 z/ A/G/A/ B2 z/ d/c/d/ | %35
 e>E DF !fermata!E4 |] %36
V:3
 x8 | x8 | x8 | x8 | z2 z/ C/B,/C/ A,/C/B,/C/ G,/C/B,/C/ | %5
 F,/C/B,/C/ E,/C/B,/C/ D,/C/B,/A,/ B,/C/A,/B,/ | %6
 C,/B,/A,/G,/ A,/B,/G,/A,/ B,,/A,/G,/^F,/ G,/A,/F,/G,/ | %7
 A,,/G,/^F,/E,/ F,/G,/E,/F,/ G,/F,/G,/A,/ B,/G,/A,/B,/ | CC, B,,B, A,A,, G,,G, | %9
 C,A,, D,C, B,,G,, C,B,, | A,,F,, B,,A,, ^G,,E,, A,,=G,, | F,,D,, D,B,, E,^F, ^G,E, | %12
 A,=G,=F,E, D, z A, z | A, z A, z A, z z2 | A, z z2 A, z z2 | A, z z2 A, z z2 | %16
 z2 z/ E/^D/E/ C/E/D/E/ B,/E/D/E/ | A,/E/^D/E/ G,/E/D/E/ ^F,/E/D/^C/ D/E/C/D/ | %18
 E,^F,G,E, A,/D/^C/B,/ C/D/B,/C/ | D,E,^F,D, G,F,^G,E, | A,/=G,/^F,/E,/ F,/G,/E,/F,/ ^D,^C,D,B,, | %21
 E,B,, =C,^F,, G,,A,, B,,B, | E,E,,^F,,G,, A,,/G,/A,/G,/ ^F,/A,/E,/A,/ | %23
 D,D,,E,,^F,, G,,/^F,/G,/F,/ E,/G,/D,/G,/ | C,E, A,,C, ^F,,/C/D/C/ B,/D/A,/D/ | G,2 z2 z4 | z8 | %27
 z8 | z8 | z8 | z8 | z8 | z2 z/ C,/B,,/C,/ A,,/C,/B,,/C,/ G,,/C,/B,,/C,/ | %33
 F,,/C,/B,,/C,/ E,,/C,/B,,/C,/ D,,/C,/B,,/A,,/ B,,/C,/A,,/B,,/ | C,D,E,^F, G,G,,A,,B,, | %35
 C,E,,F,,G,, !fermata!C,,4 |] %36

